X:12
T:You Sang To Me
T:Geraldton Western Australia 1916
C:Walter Marwood Du Boulay (1882-1942)
C:Geraldton, Western Australia
S:http://nla.gov.au/nla.mus-an11851478
L:1/8
M:4/4
I:linebreak $
K:Ebmaj
[I:MIDI=program 59]G,|G4^F2G2|A6G2|G2D2=E2GF | =E2Z|$
w:You sa-ng to me in those bright days *of old;
w: You sa-ng to me, I hear those old* songs yet
=E4F2E2 | =B4=A4 | =A2D2G^F=F2 | =E4Z|$
w:Youth in it's glad-ness turned life's stream *to gold;
w:Their mem 'ry lives; their ec-ho brings* re-gret
G4^F2G2 | A4G4 | G2D2E2D2 | C4Z|$
w:Years bring but sad-ness, heads are bent and grey;
w:I wait in si-lence, all I wait up-on
C4E2G2 | c2G2!fermata!A4 | A!fermata!G2C!fermata!E2D2 | C4Z:|
w:God in his wis-dom gave, then took, then took a-way
w:Is marred by  one great dis-chord-ant note, Thou art gone.

